dist/img/catalog/chars/engine.svg

<svg width="20" height="16" viewBox="0 0 20 16" fill="none" xmlns="http://www.w3.org/2000/svg">
<path d="M18.3333 4.79992H17.0834C16.7326 4.79992 16.4238 5.03351 16.3241 5.37273L15.5546 7.99987H15.4691L15.1271 6.95032C15.0195 6.62152 14.717 6.39993 14.375 6.39993H12.7916V5.59991C12.7916 5.15831 12.4378 4.79992 12 4.79992H10.4166V3.99994H11.2083C11.6461 3.99994 12 3.64155 12 3.19995V0.799924C12 0.358325 11.6461 -6.10352e-05 11.2083 -6.10352e-05H4.875C4.43722 -6.10352e-05 4.08335 0.358325 4.08335 0.799924V3.19992C4.08335 3.64152 4.43722 3.9999 4.875 3.9999H5.66666V4.79989H3.29166C2.85388 4.79992 2.5 5.15831 2.5 5.59991V8.79987H1.70835V7.99987C1.70835 7.55834 1.35447 7.19992 0.916691 7.19992C0.478875 7.19992 0.125 7.55834 0.125 7.99987V11.1999C0.125 11.6415 0.478875 11.9999 0.916655 11.9999C1.35443 11.9999 1.70831 11.6415 1.70831 11.1999V10.3999H2.5V11.9999C2.5 12.1183 2.52613 12.2351 2.57678 12.3423L3.70175 14.7423C3.83237 15.0215 4.11025 15.1999 4.41663 15.1999H13.9586C14.2381 15.1999 14.497 15.0503 14.6395 14.8079L15.348 13.5999H15.6076L16.3462 15.4935C16.4666 15.7991 16.7587 15.9999 17.0833 15.9999H18.3333C18.7711 15.9999 19.125 15.6415 19.125 15.1999V5.59991C19.125 5.15831 18.7711 4.79992 18.3333 4.79992Z" fill="#0F0908"/>
</svg>

<svg width="20" height="16" viewBox="0 0 20 16" fill="none" xmlns="http://www.w3.org/2000/svg"><path d="M18.333 4.8h-1.25c-.35 0-.66.234-.759.573L15.554 8h-.085l-.342-1.05a.793.793 0 00-.752-.55h-1.583v-.8c0-.442-.354-.8-.792-.8h-1.583V4h.791A.796.796 0 0012 3.2V.8c0-.442-.354-.8-.792-.8H4.875a.796.796 0 00-.792.8v2.4c0 .442.354.8.792.8h.792v.8H3.292a.796.796 0 00-.792.8v3.2h-.792V8c0-.442-.354-.8-.791-.8a.796.796 0 00-.792.8v3.2c0 .442.354.8.792.8a.796.796 0 00.791-.8v-.8H2.5V12c0 .118.026.235.077.342l1.125 2.4a.79.79 0 00.715.458h9.542a.79.79 0 00.68-.392l.709-1.208h.26l.738 1.893c.12.306.413.507.737.507h1.25a.796.796 0 00.792-.8V5.6c0-.442-.354-.8-.792-.8z" fill="#0F0908"/></svg>
